!!!Melodie: Eigene
!!!Typ: Lied
**kern	**silbe	**silbe	**silbe	**silbe	**silbe	**silbe	**silbe	**silbe	**silbe	**silbe	**silbe	**silbe	**silbe	**silbe	**silbe	**silbe	**silbe	**silbe	**silbe	**silbe
*clefG2	*lang:DE	*lang:DE	*lang:DE	*lang:DE	*lang:DE	*lang:DE	*lang:DE	*lang:DE	*lang:DE	*lang:DE	*lang:DE	*lang:DE	*lang:DE	*lang:DE	*lang:DE	*lang:DE	*lang:DE	*lang:DE	*lang:DE	*lang:DE
*k[b-]	*	*	*	*	*	*	*	*	*	*	*	*	*	*	*	*	*	*	*	*
*M4/4	*	*	*	*	*	*	*	*	*	*	*	*	*	*	*	*	*	*	*	*
*met(c)	*	*	*	*	*	*	*	*	*	*	*	*	*	*	*	*	*	*	*	*
4cc	Eins	Al#	See#	Lass,	Wie	Da	Al#	lass	Al#	gib	Nichts	Je#	Nun	du	Ja,	du	Vol#	weil	D’rum	Prüf’,
4cc	ist	#les	#le,	was	Ma#	sie	#so	mich	#ler	nur,	kann	#su!	so	bist	was	bist	#les	auf	auch,	er#
4dd	Not!	an#	willst	ir#	#ri#	sich	ist	treu#	Weis#	dass	ich	Es	gib,	ja,	soll	ein#	‘Gnü#	ei#	Je#	#fah#
4ee	Ach	#d're,	du	#disch	#a	zu	auch	#lich	#heit	sich	vor	muss	dass	den	ich	#mal	#gen,	#ne	#su,	#re,
=	=	=	=	=	=	=	=	=	=	=	=	=	=	=	=	=	=	=	=	=
4ff	Herr,	wie’s	die#	ist,	war	Je#	mein	an	höch#	auch	Gott	mir	mei#	ich	mehr	ein#	Fried’	fri#	du	wie
4ff	dies	auch	#ses	da#	be#	#su	Ver#	dir	#ste	mein	ja	ge#	#ne	er#	ver#	#ge#	und	#sche	al#	ich’s
4ee	ei#	schei#	fin#	#hin#	#flis#	Fü#	#lan#	han#	Fül#	Wil#	brin#	#lin#	See#	#wäh#	#lan#	#gan#	Freu#	Wei#	#lei#	mei#
4;ee	#ne	#ne,	#den,	#ten,	#sen	#ßen	#gen,	#gen,	#le	#le	#gen,	#gen	#le	#le,	#gen?	#gen	#de	#de	#ne,	#ne,
=	=	=	=	=	=	=	=	=	=	=	=	=	=	=	=	=	=	=	=	=
4dd	leh#	ist	such’s	schwing	auf	vol#	lieb#	schen#	in	fein	als	durch	auch	mir	Mich	in	jet#	mein	sollst	til#
4dd	#re	ja	bei	dich	des	#ler	#ster	#ke	dir	in	nur	dein	nach	zur	be#	das	#zo	Hirt’,	mein	#ge
8Lcc	mich	nur	kei#	ü#	ei#	An#	Je#	dich	ja	sol#	dich,	ro#	dei#	Hei#	#schwemmt	Heil#	mei#	Je#	Ein	al#
8Jb-	|	|	|	|	|	|	|	|	|	|	|	|	|	|	|	|	|	|	|	|
4a	er#	ein	#ner	#ber	#ni#	#dacht	#su,	zu	ver#	#che	mein	#sin#	#nem	#li#	der	#'ge	#ne	#sus,	und	#len
=	=	=	=	=	=	=	=	=	=	=	=	=	=	=	=	=	=	=	=	=
8Lb-	#ken#	schwe#	Kre#	die	#gen	nie#	nur	ei#	#bor#	Schran#	höch#	#far#	Bild	#gung	Gna#	durch	Seel’	mich	Al#	Heu#
8Ja	|	|	|	|	|	|	|	|	|	|	|	|	|	|	|	|	|	|	|	|
8Lg	#nen	#res	#a#	Na#	Ge#	#der#	nach	#gen	#gen	#ken	#stes	#bes	er#	ge#	#den#	dein	er#	ge#	#les	#chel#
8Jf	|	|	|	|	|	|	|	|	|	|	|	|	|	|	|	|	|	|	|	|
2;f	doch:	Joch,	#tur:	#tur	#nieß,	#ließ;	dir;	mir.	liegt.	fügt,	Gut;	Blut.	#wacht;	#macht.	#flut:	Blut;	#götzt,	#setzt.	sein.	#schein:
=:|	=	=	=	=	=	=	=	=	=	=	=	=	=	=	=	=	=	=	=	=
*M3/4	*	*	*	*	*	*	*	*	*	*	*	*	*	*	*	*	*	*	*	*
4r	.	%	.	%	.	%	.	%	.	%	.	%	.	%	.	%	.	%	.	%
4r	.	%	.	%	.	%	.	%	.	%	.	%	.	%	.	%	.	%	.	%
4f	.	dar#	.	Wo	.	ihr	.	Ob	.	Wo#	.	die	.	was	.	da	.	Nichts	.	sieh,
=	=	=	=	=	=	=	=	=	=	=	=	=	=	=	=	=	=	=	=	=
4a	.	#un#	.	Gott	.	Her#	.	viel	.	#rin#	.	höch#	.	die#	.	hast	.	Sü#	.	ob
4a	.	#ter	.	und	.	#ze	.	auch	.	#nen	.	#ste	.	#net	.	du	.	#ßes	.	ich
4a	.	das	.	die	.	ent#	.	um#	.	die	.	Ge#	.	zum	.	die	.	kann	.	auf
=	=	=	=	=	=	=	=	=	=	=	=	=	=	=	=	=	=	=	=	=
4g	.	Her#	.	Mensch#	.	#brann#	.	#kehr#	.	De#	.	#rech#	.	gött#	.	ew#	.	al#	.	bö#
4g	.	#ze	.	#heit	.	#te	.	#ten	.	#mut	.	#tig#	.	#li#	.	#'ge	.	#so	.	#sen,
4g	.	sich	.	in	.	dies	.	zum	.	und	.	#keit	.	#chen	.	Er#	.	mein	.	be#
=	=	=	=	=	=	=	=	=	=	=	=	=	=	=	=	=	=	=	=	=
4b-	.	na#	.	ei#	.	ein#	.	grö#	.	Ein#	.	ist	.	Wan#	.	#lö#	.	Her#	.	#trüg#
4b-	.	#get	.	#nem	.	#zig	.	#ßes#	.	#falt	.	mir	.	#del	.	#sung	.	#ze	.	#li#
4b-	.	und	.	ver#	.	zu	.	#ten	.	re#	.	er#	.	und	.	er#	.	er#	.	#chen
=	=	=	=	=	=	=	=	=	=	=	=	=	=	=	=	=	=	=	=	=
4a	.	pla#	.	#ei#	.	hö#	.	Hau#	.	#gie#	.	#wor#	.	Le#	.	#fun#	.	#la#	.	Ste#
4;a	.	#get,	.	#net,	.	#ren,	.	#fen;	.	#ret,	.	#ben,	.	#ben,	.	#den,	.	#ben,	.	#ge,
4a	.	und	.	wo	.	was	.	so	.	und	.	da	.	ist	.	dass	.	als	.	und
=	=	=	=	=	=	=	=	=	=	=	=	=	=	=	=	=	=	=	=	=
4dd	.	den#	.	al#	.	Je#	.	will	.	mich	.	du	.	in	.	ich	.	wenn	.	lei#
4dd	.	#noch	.	#le	.	#sus,	.	ich	.	zu	.	bist	.	dir,	.	nun	.	ich	.	#te
4dd	.	kein	.	voll#	.	ihr	.	dir	.	der	.	am	.	mein	.	der	.	nur,	.	mich,
=	=	=	=	=	=	=	=	=	=	=	=	=	=	=	=	=	=	=	=	=
4.cc	.	wah#	.	#komm#	.	Hei#	.	den#	.	Weis#	.	Stam#	.	Hei#	.	höl#	.	Je#	.	Höch#
8b-	.	#res	.	#e#	.	#land,	.	#noch	.	#heit,	.	#me	.	#land,	.	#li#	.	#su,	.	#ster!
4a	.	Ver#	.	#ne	.	sie	.	in	.	die	.	des	.	mir	.	#schen	.	dich	.	auf
=	=	=	=	=	=	=	=	=	=	=	=	=	=	=	=	=	=	=	=	=
4b-	.	#gnü#	.	Fül#	.	woll#	.	Lie#	.	himm#	.	Kreu#	.	al#	.	Herr#	.	im#	.	e#
8Lcc	.	#gen	.	#le	.	#te	.	#be	.	#lisch	.	#es	.	#les	.	#schaft	.	#mer	.	#wi#
8Jb-	.	|	.	|	.	|	.	|	.	|	.	|	.	|	.	|	.	|	.	|
4a	.	er#	.	er#	.	be#	.	nach#	.	ist,	.	ge#	.	ge#	.	ent#	.	soll	.	#gem
=	=	=	=	=	=	=	=	=	=	=	=	=	=	=	=	=	=	=	=	=
(4a	.	#ja#	.	#schei#	.	#leh#	.	#lau#	.	füh#	.	#stor#	.	#ge#	.	#bun#	.	ha#	.	We#
8Lg	.	|	.	|	.	|	.	|	.	|	.	|	.	|	.	|	.	|	.	|
8Jf)	.	|	.	|	.	|	.	|	.	|	.	|	.	|	.	|	.	|	.	|
4;f	.	#get.	.	#net,	.	#ren;	.	#fen:	.	#ret.	.	#ben:	.	#ben:	.	#den:	.	#ben;	.	#ge:
=	=	=	=	=	=	=	=	=	=	=	=	=	=	=	=	=	=	=	=	=
4r	.	%	.	%	.	%	.	%	.	%	.	%	.	%	.	%	.	%	.	%
4r	.	%	.	%	.	%	.	%	.	%	.	%	.	%	.	%	.	%	.	%
4f	.	er#	.	da,	.	ihr	.	denn	.	Ach!	.	die	.	ent#	.	dein	.	nichts,	.	Gib,
=	=	=	=	=	=	=	=	=	=	=	=	=	=	=	=	=	=	=	=	=
4a	.	#lang'	.	da	.	Al#	.	dein	.	Wenn	.	Klei#	.	#rei#	.	Ein#	.	nichts	.	dass
4a	.	ich	.	ist	.	#les	.	Wort,	.	ich	.	#der	.	#ße	.	#gang	.	ist	.	ich
4a	.	dies	.	das	.	war	.	O	.	nur	.	des	.	mich	.	die	.	das,	.	nur
=	=	=	=	=	=	=	=	=	=	=	=	=	=	=	=	=	=	=	=	=
4g	.	ei#	.	bes#	.	gänz#	.	Je#	.	Je#	.	Heils	.	al#	.	völ#	.	al#	.	al#
4g	.	#ne,	.	#te	.	#lich	.	#su!	.	#sum	.	ich	.	#ler	.	#li#	.	#so	.	#les
4g	.	das	.	not#	.	in	.	ist	.	recht	.	da	.	ver#	.	#ge	.	mich	.	hier
=	=	=	=	=	=	=	=	=	=	=	=	=	=	=	=	=	=	=	=	=
4b-	.	al#	.	#wen#	.	Je#	.	Le#	.	ken#	.	ha#	.	#gäng#	.	Frei#	.	in#	.	ach#
4b-	.	#les	.	#di#	.	#su	.	#ben	.	#ne	.	#be	.	#li#	.	#heit	.	#nig	.	#te
4b-	.	er#	.	#ge	.	ver#	.	und	.	und	.	er#	.	#chen	.	mir	.	er#	.	für
=	=	=	=	=	=	=	=	=	=	=	=	=	=	=	=	=	=	=	=	=
2;a	.	#setzt;	.	Teil,	.	#senkt,	.	Geist;	.	weiß,	.	#langt,	.	Lust,	.	bringt,	.	#quickt,	.	Koth
4a	.	so	.	mein	.	und	.	was	.	so	.	wo#	.	dein	.	im	.	als	.	und
=	=	=	=	=	=	=	=	=	=	=	=	=	=	=	=	=	=	=	=	=
4dd	.	werd’	.	Ein	.	wur#	.	ist	.	hab’	.	#rin#	.	Le#	.	kind#	.	wenn	.	Je#
4dd	.	ich	.	und	.	#de	.	wohl,	.	ich	.	#ne	.	#ben	.	#li#	.	ich	.	#sum
4dd	.	mit	.	mein	.	ihr	.	das	.	der	.	mein	.	sei,	.	#chen	.	dich,	.	ge#
=	=	=	=	=	=	=	=	=	=	=	=	=	=	=	=	=	=	=	=	=
4.cc	.	ei#	.	Al#	.	Al#	.	man	.	Weis#	.	Glau#	.	Je#	.	Gei#	.	Je#	.	#win#
8b-	.	#nem	.	#les	.	#les	.	nicht	.	#heit	.	#be	.	#su,	.	#ste	.	#su,	.	#ne:
4a	.	in	.	und	.	in	.	in	.	voll#	.	in	.	mir	.	das	.	im	.	dies
=	=	=	=	=	=	=	=	=	=	=	=	=	=	=	=	=	=	=	=	=
4b-	.	al#	.	see#	.	Ei#	.	Je#	.	#komm#	.	E#	.	ein#	.	Ab#	.	Glau#	.	ei#
4a	.	#lem	.	#lig#	.	#nem	.	#su	.	#e#	.	#wig#	.	#zig	.	#ba	.	#ben	.	#ne
8Lg	.	er#	.	#stes	.	ge#	.	ge#	.	#nen	.	#keit	.	be#	.	nun	.	er#	.	ist
8Jf	.	|	.	|	.	|	.	|	.	|	.	|	.	|	.	|	.	|	.	|
=	=	=	=	=	=	=	=	=	=	=	=	=	=	=	=	=	=	=	=	=
2.;f	.	#getzt.	.	Heil.	.	#schenkt:	.	#eußt?	.	Preis.	.	prangt.	.	#wusst.	.	klingt.	.	#blickt.	.	Not!
==	==	==	==	==	==	==	==	==	==	==	==	==	==	==	==	==	==	==	==	==
*-	*-	*-	*-	*-	*-	*-	*-	*-	*-	*-	*-	*-	*-	*-	*-	*-	*-	*-	*-	*-
